projects/icons/svg/print.svg

<?xml version="1.0" encoding="UTF-8" standalone="no"?>
<svg
   viewBox="0 0 700 700"
   version="1.1"
   id="svg9724"
   sodipodi:docname="print.svg"
   inkscape:version="1.3.2 (091e20ef0f, 2023-11-25)"
   width="700"
   height="700"
   xmlns:inkscape="http://www.inkscape.org/namespaces/inkscape"
   xmlns:sodipodi="http://sodipodi.sourceforge.net/DTD/sodipodi-0.dtd"
   xmlns="http://www.w3.org/2000/svg"
   xmlns:svg="http://www.w3.org/2000/svg">
  <defs
     id="defs9728" />
  <sodipodi:namedview
     id="namedview9726"
     pagecolor="#ffffff"
     bordercolor="#666666"
     borderopacity="1.0"
     inkscape:showpageshadow="2"
     inkscape:pageopacity="0.0"
     inkscape:pagecheckerboard="0"
     inkscape:deskcolor="#d1d1d1"
     showgrid="true"
     inkscape:zoom="0.84118632"
     inkscape:cx="232.40987"
     inkscape:cy="383.38712"
     inkscape:window-width="1920"
     inkscape:window-height="1048"
     inkscape:window-x="0"
     inkscape:window-y="0"
     inkscape:window-maximized="1"
     inkscape:current-layer="svg9724"
     showguides="true">
    <inkscape:grid
       type="xygrid"
       id="grid9972"
       originx="0"
       originy="0"
       spacingy="1"
       spacingx="1"
       units="px"
       visible="true" />
    <sodipodi:guide
       position="-260,300"
       orientation="0,-1"
       id="guide383"
       inkscape:locked="false" />
    <sodipodi:guide
       position="300,520"
       orientation="1,0"
       id="guide385"
       inkscape:locked="false" />
    <sodipodi:guide
       position="240,520"
       orientation="0,-1"
       id="guide939"
       inkscape:locked="false" />
    <sodipodi:guide
       position="220,80"
       orientation="0,-1"
       id="guide941"
       inkscape:locked="false" />
  </sodipodi:namedview>
  <g
     id="g1"
     transform="translate(50,45.000025)">
    <path
       id="rect348"
       style="color:#000000;fill:#020202;stroke-linecap:round;stroke-linejoin:round;-inkscape-stroke:none;paint-order:stroke fill markers"
       d="M 170,0 A 40.00405,40.00405 0 0 0 130,40 V 150 H 40 C 17.909591,150.002 0.00220871,167.90958 0,190 v 220 c 0.00220871,22.09042 17.909591,39.99779 40,40 h 90 V 320 c 0.002,-22.09042 17.90958,-39.998 40,-40 h 260 c 22.09042,0.002 39.998,17.90958 40,40 v 130 h 90 c 22.09042,-0.002 39.99779,-17.90958 40,-40 V 190 c -0.002,-22.09042 -17.90958,-39.99779 -40,-40 H 470 V 40 A 40.00405,40.00405 0 0 0 430,0 Z m 40,80 h 180 v 70 H 210 Z m 220,120 h 100 a 20,20 0 0 1 20,20 20,20 0 0 1 -20,20 H 430 a 20,20 0 0 1 -20,-20 20,20 0 0 1 20,-20 z" />
    <rect
       style="fill:none;stroke:#020202;stroke-width:79.9999;stroke-linecap:round;stroke-linejoin:round;paint-order:stroke fill markers"
       id="rect348-3-6"
       width="260"
       height="260"
       x="310"
       y="-430"
       transform="rotate(90)" />
    <path
       style="color:#000000;fill:#000000;stroke-linecap:round;-inkscape-stroke:none"
       d="m 250,380 a 20,20 0 0 0 -20,20 20,20 0 0 0 20,20 h 100 a 20,20 0 0 0 20,-20 20,20 0 0 0 -20,-20 z"
       id="path641" />
    <path
       style="color:#000000;fill:#000000;stroke-linecap:round;-inkscape-stroke:none"
       d="m 250,460 a 20,20 0 0 0 -20,20 20,20 0 0 0 20,20 h 100 a 20,20 0 0 0 20,-20 20,20 0 0 0 -20,-20 z"
       id="path641-5" />
  </g>
</svg>

<?xml version="1.0" encoding="UTF-8" standalone="no"?>
<svg
   viewBox="0 0 600 600"
   version="1.1"
   id="svg9724"
   sodipodi:docname="print.svg"
   inkscape:version="1.2.2 (1:1.2.2+202212051550+b0a8486541)"
   width="600"
   height="600"
   xmlns:inkscape="http://www.inkscape.org/namespaces/inkscape"
   xmlns:sodipodi="http://sodipodi.sourceforge.net/DTD/sodipodi-0.dtd"
   xmlns="http://www.w3.org/2000/svg"
   xmlns:svg="http://www.w3.org/2000/svg">
  <defs
     id="defs9728" />
  <sodipodi:namedview
     id="namedview9726"
     pagecolor="#ffffff"
     bordercolor="#666666"
     borderopacity="1.0"
     inkscape:showpageshadow="2"
     inkscape:pageopacity="0.0"
     inkscape:pagecheckerboard="0"
     inkscape:deskcolor="#d1d1d1"
     showgrid="true"
     inkscape:zoom="0.84118632"
     inkscape:cx="232.40987"
     inkscape:cy="383.38712"
     inkscape:window-width="1920"
     inkscape:window-height="1009"
     inkscape:window-x="0"
     inkscape:window-y="1080"
     inkscape:window-maximized="1"
     inkscape:current-layer="svg9724"
     showguides="true">
    <inkscape:grid
       type="xygrid"
       id="grid9972"
       originx="0"
       originy="0" />
    <sodipodi:guide
       position="-260,300"
       orientation="0,-1"
       id="guide383"
       inkscape:locked="false" />
    <sodipodi:guide
       position="300,520"
       orientation="1,0"
       id="guide385"
       inkscape:locked="false" />
    <sodipodi:guide
       position="240,520"
       orientation="0,-1"
       id="guide939"
       inkscape:locked="false" />
    <sodipodi:guide
       position="220,80"
       orientation="0,-1"
       id="guide941"
       inkscape:locked="false" />
  </sodipodi:namedview>

  <path
     id="rect348"
     style="color:#000000;fill:#020202;stroke-linecap:round;stroke-linejoin:round;-inkscape-stroke:none;paint-order:stroke fill markers"
     d="M 170 0 A 40.00405 40.00405 0 0 0 130 40 L 130 150 L 40 150 C 17.909591 150.002 0.0022087134 167.90958 0 190 L 0 410 C 0.0022087134 432.09042 17.909591 449.99779 40 450 L 130 450 L 130 320 C 130.00224 297.90958 147.90958 280.002 170 280 L 430 280 C 452.09042 280.00224 469.998 297.90958 470 320 L 470 450 L 560 450 C 582.09042 449.998 599.99779 432.09042 600 410 L 600 190 C 599.998 167.90958 582.09042 150.00221 560 150 L 470 150 L 470 40 A 40.00405 40.00405 0 0 0 430 0 L 170 0 z M 210 80 L 390 80 L 390 150 L 210 150 L 210 80 z M 430 200 L 530 200 A 20 20 0 0 1 550 220 A 20 20 0 0 1 530 240 L 430 240 A 20 20 0 0 1 410 220 A 20 20 0 0 1 430 200 z " />
  <rect
     style="fill:none;stroke:#020202;stroke-width:79.9999;stroke-linecap:round;stroke-linejoin:round;paint-order:stroke fill markers"
     id="rect348-3-6"
     width="260"
     height="260"
     x="310"
     y="-430"
     transform="rotate(90)" />
  <path
     style="color:#000000;fill:#000000;stroke-linecap:round;-inkscape-stroke:none"
     d="m 250,380 a 20,20 0 0 0 -20,20 20,20 0 0 0 20,20 h 100 a 20,20 0 0 0 20,-20 20,20 0 0 0 -20,-20 z"
     id="path641" />
  <path
     style="color:#000000;fill:#000000;stroke-linecap:round;-inkscape-stroke:none"
     d="m 250,460 a 20,20 0 0 0 -20,20 20,20 0 0 0 20,20 h 100 a 20,20 0 0 0 20,-20 20,20 0 0 0 -20,-20 z"
     id="path641-5" />
</svg>
